Sources/FrostedUI/Resources/Icons.xcassets/headphones12.imageset/headphones-12.svg

<svg width="12" height="12" viewBox="0 0 12 12" fill="none" xmlns="http://www.w3.org/2000/svg" data-fui-icon="true">
  <g clip-path="url(#clip0_5220_361)">
    <path
      d="M6 0.5625C7.88602 0.5625 9.27623 1.253 10.1826 2.3291C11.0711 3.3842 11.4375 4.74065 11.4375 6V8.25C11.4375 8.27108 11.4353 8.29186 11.4336 8.3125C11.4353 8.35397 11.4375 8.39561 11.4375 8.4375C11.4375 10.0944 10.0944 11.4375 8.4375 11.4375C7.60907 11.4375 6.9375 10.7659 6.9375 9.9375V6.9375C6.9375 6.10907 7.60907 5.4375 8.4375 5.4375C8.98164 5.4375 9.49066 5.58461 9.93066 5.83789C9.90061 4.90255 9.61401 3.98235 9.03613 3.2959C8.44251 2.59097 7.48875 2.0625 6 2.0625C4.51125 2.0625 3.55749 2.59097 2.96387 3.2959C2.38598 3.98235 2.0984 4.90254 2.06836 5.83789C2.50853 5.58435 3.01805 5.4375 3.5625 5.4375C4.39093 5.4375 5.0625 6.10907 5.0625 6.9375V9.9375C5.0625 10.7659 4.39093 11.4375 3.5625 11.4375C1.90565 11.4375 0.5625 10.0944 0.5625 8.4375C0.5625 8.39562 0.56373 8.35396 0.56543 8.3125C0.563728 8.29188 0.5625 8.27106 0.5625 8.25V6C0.5625 4.74065 0.928877 3.3842 1.81738 2.3291C2.72377 1.253 4.11398 0.5625 6 0.5625ZM3.5625 6.9375C2.73407 6.9375 2.0625 7.60907 2.0625 8.4375C2.0625 9.26593 2.73407 9.9375 3.5625 9.9375V6.9375ZM8.4375 9.9375C9.26593 9.9375 9.9375 9.26593 9.9375 8.4375C9.9375 7.60907 9.26593 6.9375 8.4375 6.9375V9.9375Z"
      fill="currentColor"
    />
  </g>
  <defs>
    <clipPath id="clip0_5220_361"><path fill="currentColor" d="M0 0H12V12H0z" /></clipPath>
  </defs>
</svg>

<svg xmlns="http://www.w3.org/2000/svg" width="12" height="12" fill="none" data-fui-icon="true" viewBox="0 0 12 12"><g clip-path="url(#a)"><path fill="currentColor" d="M6 .563c1.886 0 3.276.69 4.183 1.766.888 1.055 1.255 2.412 1.255 3.671v2.25q-.001.031-.004.063.003.062.004.124a3 3 0 0 1-3 3 1.5 1.5 0 0 1-1.5-1.5v-3a1.5 1.5 0 0 1 1.5-1.5c.544 0 1.053.148 1.493.4-.03-.934-.317-1.855-.895-2.541C8.443 2.59 7.49 2.063 6 2.063s-2.443.528-3.036 1.233c-.578.686-.866 1.607-.896 2.542.44-.254.95-.4 1.495-.4a1.5 1.5 0 0 1 1.5 1.5v3a1.5 1.5 0 0 1-1.5 1.5A3 3 0 0 1 .564 8.312L.563 8.25V6c0-1.26.366-2.616 1.254-3.67C2.724 1.252 4.114.562 6 .562M3.563 6.938a1.5 1.5 0 1 0 0 3zm4.874 3a1.5 1.5 0 1 0 0-3z"/></g><defs><clipPath id="a"><path fill="currentColor" d="M0 0h12v12H0z"/></clipPath></defs></svg>
